X:1
T:DANZA DEL ACHA
T:DANZA DEL ACHA
T:Copyright © 
T:Copyright © 
Z:Copyright ©
%%score { ( 1 3 ) | 2 }
L:1/8
Q:1/4=170
M:4/4
K:C
V:1 treble nm="Organ" snm="Org."
V:3 treble 
V:2 bass 
V:1
 [ce]2 [ce]2 [ce]2 [ce]2 | [Bd]4 [Bd]2 [Bd]2 | c2 Bc dcBA | [^GB]4 [GB]4 | %4
 [ce]2 [ce]2 [ce]2 [ce]2 | [Bd]4 [Bd]2 [Bd]2 | [A^c]2 [Ad]2 [^GB]2 [GB]2 | [EA^c]8 ::!p! [EGc]8 | %9
 [DGB]4 [GBd]4 | [EAc]4 [EAc]4 | [E^GB]8 | [Gce]4 [Gce]4 | [GBd]4 [EA^c]4 | [FAd]4 [E^GB]4 | %15
 [EA^c]8 ::!f! edcd edec | dcBc dcdB | cBAB cBcd | edef gagf | e2 dc BcdB | c3 B A4 :: %22
!p! [Gce]4 [Gce]4 | [GBd]4 [GBd]4 | [EAc]4 [EAc]4 | [^GBe]8 | [Be]4 e2 dc | B2 AG F2 ED | %28
 c2 BA B4 | [EA^c]8 :: [ce]2 [ce]2 [ce]2 [ce]2 | [Bd]4 [Bd]2 [Bd]2 | c2 Bc dcBA | [^GB]4 [GB]4 | %34
 [ce]2 [ce]2 [ce]2 [ce]2 | [Bd]4 [Bd]2 [Bd]2 | [A^c]2 [Ad]2 [^GB]2 [GB]2 | [EA^c]8 :| %38
V:2
 [C,G,]2 [C,G,]2 [C,G,]2 [C,G,]2 | [G,,G,]4 [G,,G,]2 [G,,G,]2 | [A,,E,]8 | [E,,E,]8 | %4
 [C,G,]2 [C,G,]2 [C,G,]2 [C,G,]2 | [G,,G,]4 [G,,G,]2 [G,,G,]2 | %6
 [A,,E,]2 [D,F,]2 [E,,E,]2 [E,,E,]2 | [A,,E,A,]8 ::!ff! C,B,,C,D, E,D,E,F, | G,4 G,,A,,B,,G,, | %10
 A,,G,,A,,B,, C,B,,C,D, | E,4 E,4 | C,B,,C,D, E,D,E,F, | G,4 A,F,G,A, | D,E,F,D, E,C,D,E, | %15
 [A,,E,A,]8 ::!p! [C,E,G,]8 | [G,,D,G,]8 | [A,,C,E,]8 | [E,,B,,E,]8 | [C,E,G,]4 [G,,D,G,]4 | %21
 [A,,C,E,]8 ::!f! CB,CD CA,B,C | G,F,G,A, B,A,B,G, | A,G,A,B, A,F,G,A, | E,EDC B,A,G,F, | %26
 E,F,E,D, C,CB,A, | G,G,F,E, D,D,C,B,, | A,,A,G,F, E,D,E,E,, | [A,,E,A,]8 :: %30
 [C,G,]2 [C,G,]2 [C,G,]2 [C,G,]2 | [G,,G,]4 [G,,G,]2 [G,,G,]2 | [A,,E,]8 | [E,,E,]8 | %34
 [C,G,]2 [C,G,]2 [C,G,]2 [C,G,]2 | [G,,G,]4 [G,,G,]2 [G,,G,]2 | %36
 [A,,E,]2 [D,F,]2 [E,,E,]2 [E,,E,]2 | [A,,E,A,]8 :| %38
V:3
 x8 | x8 | A8 | x8 | x8 | x8 | x8 | x8 :: x8 | x8 | x8 | x8 | x8 | x8 | x8 | x8 :: x8 | x8 | x8 | %19
 x8 | x8 | x8 :: x8 | x8 | x8 | x8 | G4 [Gc]4 | [Gd]4 [Ad]4 | [EA]4 [E^G]4 | x8 :: x8 | x8 | A8 | %33
 x8 | x8 | x8 | x8 | x8 :| %38

